X: 1
T: Nothing Can Sadden Us
M: 6/8
L: 1/8
R: jig
K: Amaj
A/B/ |: (c{d}c{B}c) BcB | ABA Ace | fga edc | cBB (B{d}B{A}B) |
cdc (B{d}B{A}B) | ABA Ace | fga edc | dBG A2z :|
|: cde e2e | efe fga | edc cBA | GAB (B{d}B{A}B) |
cde e2e | efe fga | edc cBA | GAB Bed :|
